;FLAVOR:Marlin
;TIME:11003
;Filament used: 9.26713m
;Layer height: 0.2
;MINX:62.079
;MINY:63.103
;MINZ:0.2
;MAXX:147.904
;MAXY:146.899
;MAXZ:19.4
;Generated with Cura_SteamEngine 4.10.0
M140 S50
M105
M190 S50
M104 S215
M105
M109 S215
M82 ;absolute extrusion mode
G21 ;metric values
G90 ;absolute positioning
M82 ;set extruder to absolute mode
M107 ;start with the fan off
G28 X0 Y0 ;move X/Y to min endstops
G28 Z0 ;move Z to min endstops
G1 Z15.0 F100 ;move the platform down 15mm
G92 E0 ;zero the extruded length
G1 F200 E3 ;extrude 3mm of feed stock
G92 E0 ;zero the extruded length again
G1 F100
G0 Y20 F100
M117 Printing...
G5
G92 E0
G92 E0
G1 F2400 E-6
;LAYER_COUNT:97
;LAYER:0
M107
M204 S3000
M205 X10 Y10
G1 F600 Z0.275
G0 F3000 X64.018 Y64.981 Z0.275
M204 S1800
M205 X8 Y8
;TYPE:SKIRT
G1 F600 Z0.2
G1 F2400 E0
G1 X64.556 Y64.511 E0.03326
G1 X65.144 Y64.103 E0.06659
G1 X65.774 Y63.764 E0.0999
G1 X66.438 Y63.498 E0.13321
G1 X67.127 Y63.307 E0.1665
G1 X68.115 Y63.171 E0.21294
G1 X68.699 Y63.141 E0.24017
G1 X70.487 Y63.104 E0.32345
G1 X112.988 Y63.103 E2.30247
G1 X113.778 Y63.114 E2.33926
G1 X114.279 Y63.141 E2.36262
G1 X114.775 Y63.191 E2.38584
G1 X119.595 Y63.823 E2.6122
G1 X120.293 Y63.925 E2.64504
G1 X120.835 Y64.019 E2.67066
G1 X121.125 Y64.077 E2.68443
G1 X123.261 Y64.523 E2.78603
G1 X123.993 Y64.687 E2.82096
G1 X124.661 Y64.875 E2.85328
G1 X125.345 Y65.122 E2.88714
G1 X128.081 Y66.179 E3.02372
G1 X128.697 Y66.428 E3.05466
G1 X129.649 Y66.909 E3.10432
G1 X130.116 Y67.199 E3.12992
G1 X133.021 Y69.106 E3.29173
G1 X133.585 Y69.489 E3.32347
G1 X133.918 Y69.731 E3.34264
G1 X134.316 Y70.064 E3.36681
G1 X134.884 Y70.58 E3.40254
G1 X137.543 Y73.056 E3.57172
G1 X138.021 Y73.513 E3.60251
G1 X138.653 Y74.213 E3.64643
G1 X139.337 Y75.096 E3.69844
G1 X141.361 Y77.806 E3.85594
G1 X141.755 Y78.349 E3.88718
G1 X142.227 Y79.105 E3.92868
G1 X142.468 Y79.566 E3.9529
G1 X144.1 Y82.903 E4.12587
G1 X144.357 Y83.449 E4.15397
G1 X144.639 Y84.155 E4.18937
G1 X144.992 Y85.216 E4.24144
G1 X146.06 Y88.667 E4.40965
G1 X146.242 Y89.287 E4.43974
G1 X146.407 Y89.999 E4.47377
G1 X146.572 Y90.959 E4.51913
G1 X147.406 Y96.34 E4.77268
G1 X147.501 Y97.017 E4.80451
G1 X147.558 Y97.58 E4.83086
G1 X147.59 Y98.098 E4.85503
G1 X147.885 Y104.084 E5.1341
G1 X147.904 Y104.975 E5.1756
G1 X147.869 Y106.233 E5.2342
G1 X147.593 Y111.828 E5.49504
G1 X147.55 Y112.501 E5.52644
G1 X147.493 Y113.058 E5.55252
G1 X147.424 Y113.546 E5.57546
G1 X146.556 Y119.147 E5.83938
G1 X146.426 Y119.914 E5.87561
G1 X146.259 Y120.643 E5.91043
G1 X146.002 Y121.517 E5.95285
G1 X144.92 Y125.018 E6.12348
G1 X144.727 Y125.614 E6.15265
G1 X144.444 Y126.334 E6.18868
G1 X143.967 Y127.363 E6.24149
G1 X142.621 Y130.116 E6.38418
G1 X142.287 Y130.775 E6.41858
G1 X141.815 Y131.561 E6.46127
G1 X141.539 Y131.95 E6.48348
G1 X139.139 Y135.167 E6.67037
G1 X138.749 Y135.675 E6.7002
G1 X138.123 Y136.377 E6.74399
G1 X137.32 Y137.152 E6.79596
G1 X134.812 Y139.489 E6.95558
G1 X134.317 Y139.939 E6.98673
G1 X133.59 Y140.51 E7.02978
G1 X132.857 Y141.003 E7.07091
G1 X130.336 Y142.654 E7.21123
G1 X129.728 Y143.04 E7.24477
G1 X129.104 Y143.389 E7.27806
G1 X128.457 Y143.672 E7.31094
G1 X128.284 Y143.741 E7.31962
G1 X125.447 Y144.834 E7.46118
G1 X124.784 Y145.077 E7.49406
G1 X124.114 Y145.282 E7.52669
G1 X123.409 Y145.443 E7.56036
G1 X121.297 Y145.884 E7.66083
G1 X120.565 Y146.025 E7.69554
G1 X119.994 Y146.12 E7.72249
G1 X119.735 Y146.156 E7.73467
G1 X115.171 Y146.759 E7.94903
G1 X114.424 Y146.846 E7.98405
G1 X113.91 Y146.885 E8.00806
G1 X113.253 Y146.899 E8.03866
G1 X70.178 Y146.897 E10.04441
G1 X69.122 Y146.881 E10.09359
G1 X68.688 Y146.861 E10.11382
G1 X68.085 Y146.823 E10.14195
G1 X67.375 Y146.739 E10.17524
G1 X66.679 Y146.575 E10.20854
G1 X66.005 Y146.335 E10.24185
G1 X65.363 Y146.021 E10.27513
G1 X64.759 Y145.637 E10.30846
G1 X64.202 Y145.189 E10.34174
G1 X63.698 Y144.681 E10.37506
G1 X63.254 Y144.12 E10.40838
G1 X62.876 Y143.513 E10.44167
G1 X62.568 Y142.867 E10.475
G1 X62.333 Y142.192 E10.50828
G1 X62.176 Y141.494 E10.54159
G1 X62.092 Y140.671 E10.58011
G1 X62.079 Y139.936 E10.61434
G1 X62.08 Y70.154 E13.86369
G1 X62.09 Y69.467 E13.89568
G1 X62.14 Y68.753 E13.92901
G1 X62.27 Y68.05 E13.9623
G1 X62.477 Y67.365 E13.99562
G1 X62.759 Y66.708 E14.02891
G1 X63.113 Y66.087 E14.0622
G1 X63.535 Y65.509 E14.09552
G1 X64.018 Y64.981 E14.12884
M204 S3000
M205 X10 Y10
G0 F3000 X64.565 Y65.235
M204 S1800
M205 X8 Y8
G1 F2400 X65.097 Y64.806 E14.16066
G1 X65.675 Y64.443 E14.19244
G1 X66.292 Y64.149 E14.22427
G1 X66.939 Y63.929 E14.25609
G1 X67.607 Y63.787 E14.28789
G1 X68.148 Y63.73 E14.31322
G1 X68.71 Y63.701 E14.33943
G1 X70.619 Y63.663 E14.42833
G1 X112.988 Y63.663 E16.40121
G1 X113.77 Y63.674 E16.43763
G1 X114.485 Y63.722 E16.471
G1 X114.702 Y63.746 E16.48116
G1 X119.514 Y64.377 E16.70715
G1 X120.212 Y64.479 E16.74
G1 X120.726 Y64.568 E16.76429
G1 X121.011 Y64.625 E16.77782
G1 X123.139 Y65.069 E16.87904
G1 X123.871 Y65.233 E16.91397
G1 X124.48 Y65.405 E16.94344
G1 X125.149 Y65.647 E16.97657
G1 X127.787 Y66.665 E17.10823
G1 X128.488 Y66.948 E17.14343
G1 X129.356 Y67.386 E17.1887
G1 X129.809 Y67.667 E17.21353
G1 X132.707 Y69.57 E17.37496
G1 X133.271 Y69.953 E17.40671
G1 X133.94 Y70.479 E17.44633
G1 X134.503 Y70.99 E17.48174
G1 X137.156 Y73.461 E17.65056
G1 X137.634 Y73.918 E17.68135
G1 X138.21 Y74.557 E17.72141
G1 X138.888 Y75.432 E17.77295
G1 X140.908 Y78.135 E17.93008
G1 X141.302 Y78.678 E17.96132
G1 X141.732 Y79.368 E17.99918
G1 X141.965 Y79.813 E18.02257
G1 X143.593 Y83.142 E18.19512
G1 X143.85 Y83.688 E18.22322
G1 X144.107 Y84.331 E18.25546
G1 X144.498 Y85.511 E18.31335
G1 X145.523 Y88.825 E18.47487
G1 X145.705 Y89.445 E18.50496
G1 X145.856 Y90.095 E18.53603
G1 X146.019 Y91.045 E18.58092
G1 X146.851 Y96.417 E18.83404
G1 X146.946 Y97.094 E18.86588
G1 X147 Y97.627 E18.89082
G1 X147.031 Y98.126 E18.9141
G1 X147.326 Y104.103 E19.19275
G1 X147.344 Y104.959 E19.23262
G1 X147.304 Y106.343 E19.29709
G1 X147.034 Y111.792 E19.55113
G1 X146.991 Y112.465 E19.58253
G1 X146.937 Y112.991 E19.60716
G1 X146.87 Y113.46 E19.62922
G1 X145.989 Y119.141 E19.89691
G1 X145.874 Y119.821 E19.92902
G1 X145.721 Y120.486 E19.9608
G1 X145.467 Y121.352 E20.00282
G1 X144.387 Y124.845 E20.17307
G1 X144.194 Y125.441 E20.20224
G1 X143.936 Y126.098 E20.2351
G1 X143.406 Y127.238 E20.29364
G1 X142.121 Y129.863 E20.42973
G1 X141.787 Y130.522 E20.46414
G1 X141.357 Y131.239 E20.50307
G1 X141.09 Y131.615 E20.52454
G1 X138.694 Y134.826 E20.7111
G1 X138.304 Y135.334 E20.74092
G1 X137.733 Y135.974 E20.78085
G1 X136.938 Y136.743 E20.83236
G1 X134.435 Y139.074 E20.99162
G1 X133.94 Y139.524 E21.02277
G1 X133.277 Y140.045 E21.06204
G1 X132.55 Y140.535 E21.10286
G1 X130.036 Y142.181 E21.24278
G1 X129.428 Y142.567 E21.27632
G1 X128.557 Y143.022 E21.32207
G1 X128.082 Y143.219 E21.34602
G1 X125.255 Y144.308 E21.48708
G1 X124.592 Y144.551 E21.51996
G1 X123.98 Y144.738 E21.54976
G1 X123.289 Y144.896 E21.58277
G1 X121.191 Y145.335 E21.68258
G1 X120.459 Y145.476 E21.71729
G1 X119.917 Y145.565 E21.74286
G1 X115.107 Y146.203 E21.9688
G1 X114.36 Y146.29 E22.00382
G1 X113.665 Y146.333 E22.03624
G1 X113.203 Y146.339 E22.05776
G1 X70.185 Y146.337 E24.06085
G1 X69.304 Y146.325 E24.10188
G1 X68.724 Y146.302 E24.12891
G1 X68.121 Y146.264 E24.15704
G1 X67.443 Y146.182 E24.18884
G1 X66.779 Y146.02 E24.22067
G1 X66.138 Y145.782 E24.25251
G1 X65.53 Y145.471 E24.28431
G1 X64.962 Y145.091 E24.31613
G1 X64.442 Y144.648 E24.34794
G1 X63.978 Y144.146 E24.37977
G1 X63.576 Y143.594 E24.41157
G1 X63.24 Y142.999 E24.44338
G1 X62.977 Y142.369 E24.47517
G1 X62.789 Y141.712 E24.50699
G1 X62.679 Y141.037 E24.53884
G1 X62.647 Y140.515 E24.56319
G1 X62.639 Y139.931 E24.59039
G1 X62.64 Y70.162 E27.83912
G1 X62.65 Y69.475 E27.87112
G1 X62.7 Y68.794 E27.90291
G1 X62.829 Y68.123 E27.93473
G1 X63.035 Y67.471 E27.96657
G1 X63.316 Y66.849 E27.99835
G1 X63.669 Y66.263 E28.03021
G1 X64.087 Y65.723 E28.062
G1 X64.565 Y65.235 E28.09381
M204 S3000
M205 X10 Y10
G0 F3000 X64.637 Y65.949
M204 S1800
M205 X8 Y8
G1 F2400 X65.11 Y65.503 E28.12408
G1 X65.634 Y65.119 E28.15433
G1 X66.201 Y64.802 E28.18458
G1 X66.802 Y64.557 E28.2148
G1 X67.43 Y64.387 E28.2451
G1 X68.181 Y64.289 E28.28036
G1 X68.722 Y64.261 E28.30559
G1 X70.619 Y64.223 E28.39394
G1 X112.988 Y64.223 E30.36682
G1 X113.762 Y64.234 E30.40286
G1 X114.433 Y64.28 E30.43418
G1 X114.63 Y64.302 E30.44341
G1 X119.433 Y64.931 E30.66897
G1 X120.131 Y65.033 E30.70181
G1 X120.841 Y65.162 E30.73541
G1 X122.94 Y65.599 E30.83525
G1 X123.748 Y65.78 E30.87381
G1 X124.299 Y65.935 E30.90046
G1 X124.953 Y66.171 E30.93283
G1 X127.662 Y67.218 E31.06807
G1 X128.278 Y67.467 E31.09901
G1 X129.063 Y67.863 E31.13995
G1 X129.502 Y68.135 E31.16399
G1 X132.392 Y70.033 E31.32499
G1 X132.956 Y70.416 E31.35674
G1 X133.564 Y70.894 E31.39275
G1 X134.121 Y71.4 E31.42779
G1 X136.769 Y73.866 E31.59628
G1 X137.247 Y74.323 E31.62707
G1 X137.768 Y74.9 E31.66327
G1 X138.44 Y75.767 E31.71435
G1 X140.455 Y78.464 E31.87111
G1 X140.849 Y79.007 E31.90235
G1 X141.238 Y79.63 E31.93655
G1 X141.462 Y80.059 E31.95909
G1 X143.086 Y83.38 E32.13123
G1 X143.343 Y83.926 E32.15933
G1 X143.576 Y84.508 E32.18852
G1 X143.963 Y85.676 E32.24581
G1 X144.985 Y88.983 E32.40699
G1 X145.167 Y89.603 E32.43707
G1 X145.304 Y90.19 E32.46514
G1 X145.466 Y91.131 E32.5096
G1 X146.297 Y96.495 E32.76235
G1 X146.392 Y97.172 E32.79419
G1 X146.442 Y97.674 E32.81768
G1 X146.472 Y98.153 E32.84003
G1 X146.766 Y104.123 E33.11835
G1 X146.784 Y104.944 E33.15659
G1 X146.745 Y106.315 E33.22045
G1 X146.475 Y111.757 E33.47417
G1 X146.432 Y112.43 E33.50557
G1 X146.364 Y113.055 E33.53484
G1 X146.317 Y113.375 E33.5499
G1 X145.437 Y119.047 E33.81718
G1 X145.322 Y119.727 E33.84929
G1 X145.184 Y120.328 E33.878
G1 X144.932 Y121.187 E33.91969
G1 X143.854 Y124.673 E34.08959
G1 X143.661 Y125.269 E34.11877
G1 X143.428 Y125.863 E34.14848
G1 X142.903 Y126.992 E34.20645
G1 X141.622 Y129.61 E34.34217
G1 X141.288 Y130.269 E34.37657
G1 X140.899 Y130.917 E34.41176
G1 X140.641 Y131.28 E34.4325
G1 X138.25 Y134.485 E34.61869
G1 X137.86 Y134.993 E34.64852
G1 X137.344 Y135.572 E34.68463
G1 X136.557 Y136.333 E34.7356
G1 X134.059 Y138.66 E34.89457
G1 X133.564 Y139.11 E34.92572
G1 X132.964 Y139.581 E34.96124
G1 X132.243 Y140.066 E35.0017
G1 X129.736 Y141.709 E35.14127
G1 X129.128 Y142.095 E35.17481
G1 X128.341 Y142.506 E35.21615
G1 X127.881 Y142.696 E35.23933
G1 X125.062 Y143.783 E35.38001
G1 X124.399 Y144.026 E35.41289
G1 X123.846 Y144.194 E35.4398
G1 X123.169 Y144.349 E35.47214
G1 X121.085 Y144.785 E35.57128
G1 X120.353 Y144.926 E35.606
G1 X119.84 Y145.01 E35.6302
G1 X119.588 Y145.045 E35.64205
G1 X115.042 Y145.647 E35.85558
G1 X114.295 Y145.734 E35.8906
G1 X113.645 Y145.774 E35.92092
G1 X113.203 Y145.779 E35.9415
G1 X70.193 Y145.778 E37.94423
G1 X69.312 Y145.766 E37.98525
G1 X68.759 Y145.744 E38.01102
G1 X68.156 Y145.706 E38.03916
G1 X67.511 Y145.625 E38.06943
G1 X66.882 Y145.466 E38.09964
G1 X66.276 Y145.23 E38.12992
G1 X65.704 Y144.922 E38.16017
G1 X65.174 Y144.547 E38.1904
G1 X64.694 Y144.109 E38.22066
G1 X64.272 Y143.615 E38.25091
G1 X63.914 Y143.073 E38.28116
G1 X63.625 Y142.491 E38.31142
G1 X63.409 Y141.879 E38.34164
G1 X63.27 Y141.244 E38.37191
G1 X63.212 Y140.63 E38.40062
G1 X63.199 Y139.926 E38.43341
G1 X63.2 Y70.17 E41.68154
G1 X63.21 Y69.483 E41.71354
G1 X63.259 Y68.835 E41.74379
G1 X63.388 Y68.199 E41.77401
G1 X63.593 Y67.582 E41.80429
G1 X63.873 Y66.996 E41.83453
G1 X64.223 Y66.449 E41.86477
G1 X64.637 Y65.949 E41.89499
M204 S3000
M205 X10 Y10
G1 F2400 E35.89499
;MESH:Makita_Tool_Holder_Corrected_Logo.stl
G0 F3000 X67.814 Y70.369
G0 X69.333 Y70.369
G0 X80.006 Y94.061
G0 X80.723 Y95.048
G0 X81.607 Y95.7
G0 X82.853 Y96.193
G0 X82.868 Y96.095
M204 S1800
M205 X8 Y8
;TYPE:WALL-INNER
G1 F2400 E41.89499
G1 F1500 X83.466 Y96.142 E41.92293
G1 X84.073 Y96.093 E41.95128
G1 X84.706 Y95.936 E41.98165
G1 X85.385 Y95.628 E42.01637
G1 X85.887 Y95.281 E42.04478
G1 X86.318 Y94.871 E42.07248
G1 X86.686 Y94.393 E42.10057
G1 X86.974 Y93.862 E42.1287
G1 X87.176 Y93.292 E42.15686
G1 X87.286 Y92.702 E42.18481
G1 X87.301 Y92.099 E42.21289
G1 X87.221 Y91.501 E42.24099
G1 X87.052 Y90.924 E42.26898
G1 X86.791 Y90.379 E42.29712
G1 X86.449 Y89.882 E42.32521
G1 X86.035 Y89.446 E42.35321
G1 X85.557 Y89.078 E42.3813
G1 X85.026 Y88.79 E42.40943
G1 X84.458 Y88.588 E42.4375
G1 X83.872 Y88.48 E42.46524
G1 X83.456 Y88.459 E42.48464
G1 X82.862 Y88.505 E42.51238
G1 X82.276 Y88.647 E42.54046
G1 X81.72 Y88.878 E42.56849
G1 X81.206 Y89.193 E42.59656
G1 X80.745 Y89.586 E42.62477
G1 X80.321 Y90.091 E42.65548
G1 X80.014 Y90.611 E42.68359
G1 X79.755 Y91.301 E42.71791
G1 X79.642 Y91.905 E42.74653
G1 X79.63 Y92.561 E42.77708
G1 X79.766 Y93.346 E42.81417
G1 X80.041 Y94.044 E42.84911
G1 X80.359 Y94.562 E42.87741
G1 X80.751 Y95.02 E42.90548
G1 X81.208 Y95.41 E42.93346
G1 X81.725 Y95.726 E42.96167
G1 X82.278 Y95.953 E42.98951
G1 X82.868 Y96.095 E43.01776
M204 S3000
M205 X10 Y10
G0 F3000 X82.853 Y96.193
G0 X108.11 Y96.156
G0 X108.13 Y96.059
M204 S1800
M205 X8 Y8
G1 F1500 X108.726 Y96.137 E43.04575
G1 X109.33 Y96.122 E43.07389
G1 X109.923 Y96.009 E43.102
G1 X110.491 Y95.807 E43.13007
G1 X111.062 Y95.49 E43.16048
G1 X111.635 Y95.02 E43.19499
G1 X112.029 Y94.558 E43.22326
G1 X112.347 Y94.041 E43.25152
G1 X112.593 Y93.431 E43.28215
G1 X112.743 Y92.707 E43.31658
G1 X112.758 Y92.097 E43.34499
G1 X112.679 Y91.5 E43.37303
G1 X112.507 Y90.923 E43.40107
G1 X112.25 Y90.379 E43.42908
G1 X111.905 Y89.879 E43.45737
G1 X111.454 Y89.412 E43.4876
G1 X110.962 Y89.046 E43.51615
G1 X110.302 Y88.714 E43.55055
G1 X109.72 Y88.543 E43.5788
G1 X109.137 Y88.465 E43.60619
G1 X108.907 Y88.459 E43.6169
G1 X108.319 Y88.505 E43.64437
G1 X107.733 Y88.647 E43.67244
G1 X107.127 Y88.903 E43.70308
G1 X106.508 Y89.312 E43.73762
G1 X106.063 Y89.735 E43.76621
G1 X105.698 Y90.212 E43.79418
G1 X105.409 Y90.745 E43.82241
G1 X105.195 Y91.367 E43.85304
G1 X105.085 Y92.1 E43.88755
G1 X105.101 Y92.71 E43.91597
G1 X105.211 Y93.295 E43.94369
G1 X105.414 Y93.867 E43.97195
G1 X105.703 Y94.398 E44.0001
G1 X106.07 Y94.874 E44.02809
G1 X106.506 Y95.287 E44.05605
G1 X107.006 Y95.63 E44.08428
G1 X107.551 Y95.889 E44.11238
G1 X108.13 Y96.059 E44.14048
M204 S3000
M205 X10 Y10
G0 F3000 X108.11 Y96.156
G0 X105.04 Y117.707
G0 X105.231 Y118.904
G0 X105.785 Y119.986
G0 X106.642 Y120.841
G0 X108.313 Y121.593
G0 X108.328 Y121.495
M204 S1800
M205 X8 Y8
G1 F1500 X108.986 Y121.541 E44.17119
G1 X109.72 Y121.458 E44.20559
G1 X110.305 Y121.284 E44.23401
G1 X110.851 Y121.023 E44.26219
G1 X111.345 Y120.681 E44.29017
G1 X111.777 Y120.271 E44.3179
G1 X112.145 Y119.791 E44.34606
G1 X112.431 Y119.261 E44.37411
G1 X112.632 Y118.694 E44.40212
G1 X112.743 Y118.102 E44.43016
G1 X112.758 Y117.497 E44.45834
G1 X112.679 Y116.9 E44.48638
G1 X112.507 Y116.322 E44.51447
G1 X112.249 Y115.779 E44.54246
G1 X111.905 Y115.28 E44.57068
G1 X111.454 Y114.812 E44.60094
G1 X110.962 Y114.445 E44.62953
G1 X110.293 Y114.111 E44.66434
G1 X109.72 Y113.943 E44.69215
G1 X109.137 Y113.865 E44.71954
G1 X108.907 Y113.859 E44.73025
G1 X108.319 Y113.905 E44.75771
G1 X107.735 Y114.047 E44.7857
G1 X107.177 Y114.277 E44.8138
G1 X106.664 Y114.593 E44.84186
G1 X106.204 Y114.985 E44.87
G1 X105.813 Y115.444 E44.89808
G1 X105.497 Y115.957 E44.92613
G1 X105.265 Y116.521 E44.95453
G1 X105.127 Y117.102 E44.98234
G1 X105.08 Y117.707 E45.01059
G1 X105.129 Y118.307 E45.03862
G1 X105.269 Y118.892 E45.06663
G1 X105.502 Y119.449 E45.09475
G1 X105.817 Y119.963 E45.12282
G1 X106.207 Y120.417 E45.15069
G1 X106.665 Y120.809 E45.17876
G1 X107.183 Y121.126 E45.20704
G1 X107.736 Y121.353 E45.23487
G1 X108.328 Y121.495 E45.26322
M204 S3000
M205 X10 Y10
G0 F3000 X108.313 Y121.593
G0 X113.632 Y139.56
G0 X113.638 Y139.659
M204 S1800
M205 X8 Y8
G1 F1500 X69.58 Y139.658 E47.31474
G1 X69.319 Y139.645 E47.32691
G1 X69.319 Y70.356 E50.5533
G1 X69.618 Y70.343 E50.56724
G1 X113.639 Y70.343 E52.61704
G1 X119.231 Y71.076 E52.87965
G1 X122.357 Y71.729 E53.02835
G1 X125.918 Y73.104 E53.2061
G1 X129.483 Y75.444 E53.40467
G1 X133.018 Y78.736 E53.62959
G1 X135.869 Y82.55 E53.85132
G1 X137.833 Y86.569 E54.05962
