;FLAVOR:Marlin
;TIME:3584
;Filament used: 3.50679m
;Layer height: 0.2
;MINX:62.56
;MINY:55.295
;MINZ:0.2
;MAXX:146.576
;MAXY:154.705
;MAXZ:20
;Generated with Cura_SteamEngine 4.10.0
M140 S50
M105
M190 S50
M104 S215
M105
M109 S215
M82 ;absolute extrusion mode
G21 ;metric values
G90 ;absolute positioning
M82 ;set extruder to absolute mode
M107 ;start with the fan off
G28 X0 Y0 ;move X/Y to min endstops
G28 Z0 ;move Z to min endstops
G1 Z15.0 F100 ;move the platform down 15mm
G92 E0 ;zero the extruded length
G1 F200 E3 ;extrude 3mm of feed stock
G92 E0 ;zero the extruded length again
G1 F100
G0 Y20 F100
M117 Printing...
G5
G92 E0
G92 E0
G1 F2400 E-6
;LAYER_COUNT:100
;LAYER:0
M107
M204 S3000
M205 X10 Y10
G1 F600 Z0.275
;MESH:single-v4-flat.stl
G0 F3000 X69.129 Y147.712 Z0.275
M204 S1800
M205 X8 Y8
;TYPE:WALL-INNER
G1 F600 Z0.2
G1 F2400 E0
G1 F1500 X69.174 Y148.03 E0.01495
G1 X69.994 Y153.747 E0.28389
G1 X70.039 Y154.065 E0.29884
G1 X69.718 Y154.065 E0.30815
G1 X69.717 Y154.065 E0.3082
G1 X66.768 Y154.065 E0.44552
G1 X66.767 Y154.065 E0.44557
G1 X66.446 Y154.065 E0.46051
G1 X66.491 Y153.747 E0.46983
G1 X67.309 Y148.036 E0.73847
G1 X67.354 Y147.718 E0.75343
G1 X67.033 Y147.718 E0.76274
G1 X67.032 Y147.718 E0.76279
G1 X64.065 Y147.718 E0.90094
G1 X64.065 Y100.567 E3.09649
G1 X64.063 Y99.935 E3.12592
G1 X64.065 Y99.382 E3.15167
G1 X64.065 Y67.879 E4.61858
G1 X64.065 Y65.297 E4.73881
G1 X64.065 Y61.03 E4.9375
G1 X64.916 Y61.03 E4.97713
G1 X64.917 Y61.03 E4.97717
G1 X65.238 Y61.03 E4.99212
G1 X65.193 Y61.348 E5.00144
G1 X64.623 Y65.323 E5.18842
G1 X64.302 Y67.561 E5.2937
G1 X64.257 Y67.879 E5.30865
G1 X64.578 Y67.879 E5.31797
G1 X64.579 Y67.879 E5.31801
G1 X71.87 Y67.879 E5.65751
G1 X71.871 Y67.879 E5.65756
G1 X72.192 Y67.879 E5.67251
G1 X72.147 Y67.561 E5.68183
G1 X71.256 Y61.348 E5.97409
G1 X71.211 Y61.03 E5.98904
G1 X71.532 Y61.03 E5.99836
G1 X71.533 Y61.03 E5.9984
G1 X72.489 Y61.03 E6.04292
G1 X72.586 Y61.593 E6.06952
G1 X72.94 Y62.569 E6.11786
G1 X73.46 Y63.466 E6.16614
G1 X74.132 Y64.256 E6.21444
G1 X74.931 Y64.916 E6.26269
G1 X75.836 Y65.424 E6.31102
G1 X76.817 Y65.764 E6.35936
G1 X77.842 Y65.925 E6.40768
G1 X78.878 Y65.902 E6.45593
G1 X79.895 Y65.697 E6.50424
G1 X80.858 Y65.315 E6.55248
G1 X81.699 Y64.795 E6.59852
G1 X83.874 Y63.261 E6.72245
G1 X86.1 Y61.881 E6.84441
G1 X88.394 Y60.64 E6.96585
G1 X90.76 Y59.536 E7.08743
G1 X93.187 Y58.576 E7.20896
G1 X95.677 Y57.756 E7.33103
G1 X98.199 Y57.087 E7.45253
G1 X100.766 Y56.568 E7.57447
G1 X103.337 Y56.205 E7.69538
G1 X105.944 Y55.993 E7.81717
G1 X108.557 Y55.935 E7.93887
G1 X111.186 Y56.034 E8.06138
G1 X113.771 Y56.284 E8.18231
G1 X116.354 Y56.689 E8.30405
G1 X118.906 Y57.247 E8.42569
G1 X121.429 Y57.958 E8.54775
G1 X123.902 Y58.814 E8.66961
G1 X126.296 Y59.805 E8.79025
G1 X128.673 Y60.959 E8.91329
G1 X130.933 Y62.226 E9.03394
G1 X133.13 Y63.636 E9.15549
G1 X135.261 Y65.189 E9.27828
G1 X137.264 Y66.839 E9.39911
G1 X139.179 Y68.615 E9.52073
G1 X140.991 Y70.508 E9.64275
G1 X142.685 Y72.503 E9.76462
G1 X144.254 Y74.588 E9.88612
G1 X145.673 Y76.729 E10.00572
G1 X145.856 Y77.119 E10.02578
G1 X145.934 Y77.494 E10.04362
G1 X145.921 Y77.887 E10.06193
G1 X145.819 Y78.259 E10.07989
G1 X145.632 Y78.599 E10.09796
G1 X145.368 Y78.888 E10.11618
G1 X145.047 Y79.106 E10.13425
G1 X144.683 Y79.244 E10.15238
G1 X144.309 Y79.291 E10.16993
G1 X143.903 Y79.237 E10.189
G1 X143.52 Y79.081 E10.20826
G1 X143.185 Y78.832 E10.2277
G1 X142.881 Y78.458 E10.25014
G1 X141.47 Y76.34 E10.36864
G1 X139.886 Y74.263 E10.49027
G1 X138.173 Y72.293 E10.61183
G1 X136.338 Y70.435 E10.73343
G1 X134.386 Y68.699 E10.85507
G1 X132.329 Y67.091 E10.97664
G1 X130.173 Y65.618 E11.09823
G1 X127.926 Y64.285 E11.21989
G1 X125.599 Y63.098 E11.34152
G1 X123.202 Y62.063 E11.4631
G1 X120.743 Y61.183 E11.58471
G1 X118.232 Y60.463 E11.70635
G1 X115.681 Y59.904 E11.82795
G1 X113.099 Y59.51 E11.94957
G1 X110.498 Y59.281 E12.07115
G1 X107.887 Y59.219 E12.19276
G1 X105.278 Y59.324 E12.31435
G1 X102.68 Y59.595 E12.43598
G1 X100.105 Y60.032 E12.5576
G1 X97.564 Y60.633 E12.67918
G1 X95.066 Y61.395 E12.80079
G1 X92.621 Y62.314 E12.92242
G1 X90.241 Y63.389 E13.04402
G1 X87.934 Y64.614 E13.16565
G1 X85.71 Y65.983 E13.28725
G1 X83.578 Y67.491 E13.40885
G1 X81.547 Y69.133 E13.53046
G1 X79.625 Y70.901 E13.65207
G1 X77.82 Y72.789 E13.77369
G1 X76.139 Y74.788 E13.89531
G1 X74.59 Y76.89 E14.01689
G1 X73.178 Y79.087 E14.1385
G1 X71.909 Y81.37 E14.26013
G1 X70.788 Y83.729 E14.38174
G1 X69.822 Y86.155 E14.50333
G1 X69.012 Y88.638 E14.62495
G1 X68.362 Y91.167 E14.74654
G1 X67.874 Y93.733 E14.86816
G1 X67.553 Y96.325 E14.98978
G1 X67.398 Y98.932 E15.11139
G1 X67.409 Y101.543 E15.23297
G1 X67.588 Y104.149 E15.3546
G1 X67.933 Y106.739 E15.47627
G1 X68.442 Y109.299 E15.5978
G1 X69.114 Y111.823 E15.71943
G1 X69.946 Y114.299 E15.84105
G1 X70.935 Y116.716 E15.96266
G1 X72.087 Y119.087 E16.0854
G1 X73.365 Y121.337 E16.20589
G1 X74.811 Y123.542 E16.32868
G1 X75.875 Y124.96 E16.41122
G1 X72.385 Y127.958 E16.62546
G1 X72.385 Y147.712 E17.54529
G1 X69.451 Y147.712 E17.68191
G1 X69.45 Y147.712 E17.68196
G1 X69.129 Y147.712 E17.69127
M204 S3000
M205 X10 Y10
G0 F3000 X69.775 Y148.272
M204 S1800
M205 X8 Y8
;TYPE:WALL-OUTER
G1 F1500 X69.82 Y148.59 E17.70622
G1 X70.639 Y154.307 E17.97515
G1 X70.684 Y154.625 E17.9901
G1 X70.363 Y154.625 E17.99942
G1 X70.362 Y154.625 E17.99946
G1 X66.123 Y154.625 E18.19685
G1 X66.122 Y154.625 E18.19689
G1 X65.801 Y154.625 E18.21184
G1 X65.846 Y154.307 E18.22116
G1 X66.663 Y148.596 E18.4898
G1 X66.708 Y148.278 E18.50475
G1 X66.387 Y148.278 E18.51406
G1 X66.386 Y148.278 E18.51411
G1 X63.505 Y148.278 E18.64826
G1 X63.505 Y100.568 E20.86984
G1 X63.503 Y99.933 E20.89941
G1 X63.505 Y99.381 E20.92511
G1 X63.505 Y60.47 E22.73697
G1 X65.561 Y60.47 E22.83271
G1 X65.562 Y60.47 E22.83275
G1 X65.883 Y60.47 E22.8477
G1 X65.838 Y60.788 E22.85702
G1 X64.948 Y67.001 E23.14927
G1 X64.903 Y67.319 E23.16423
G1 X65.224 Y67.319 E23.17354
G1 X65.225 Y67.319 E23.17359
G1 X71.224 Y67.319 E23.45293
G1 X71.225 Y67.319 E23.45297
G1 X71.546 Y67.319 E23.46792
G1 X71.501 Y67.001 E23.47724
G1 X70.611 Y60.788 E23.76949
G1 X70.566 Y60.47 E23.78445
G1 X70.887 Y60.47 E23.79376
G1 X70.888 Y60.47 E23.79381
G1 X72.967 Y60.47 E23.89062
G1 X72.972 Y60.538 E23.89379
G1 X73.129 Y61.449 E23.93684
G1 X73.449 Y62.331 E23.98052
G1 X73.919 Y63.141 E24.02413
G1 X74.527 Y63.856 E24.06783
G1 X75.249 Y64.452 E24.11143
G1 X76.067 Y64.911 E24.1551
G1 X76.953 Y65.219 E24.19878
G1 X77.879 Y65.364 E24.24243
G1 X78.816 Y65.343 E24.28607
G1 X79.735 Y65.158 E24.32972
G1 X80.606 Y64.813 E24.37334
G1 X81.39 Y64.328 E24.41627
G1 X83.559 Y62.798 E24.53987
G1 X85.822 Y61.395 E24.66385
G1 X88.134 Y60.144 E24.78625
G1 X90.547 Y59.018 E24.91025
G1 X92.993 Y58.05 E25.03274
G1 X95.51 Y57.221 E25.15613
G1 X98.08 Y56.54 E25.27993
G1 X100.661 Y56.018 E25.40255
G1 X103.281 Y55.648 E25.52576
G1 X105.92 Y55.433 E25.64905
G1 X108.566 Y55.375 E25.77228
G1 X111.21 Y55.474 E25.89549
G1 X113.845 Y55.729 E26.01876
G1 X116.457 Y56.139 E26.14187
G1 X119.045 Y56.704 E26.26522
G1 X121.592 Y57.422 E26.38844
G1 X124.097 Y58.289 E26.51187
G1 X126.541 Y59.301 E26.63504
G1 X128.918 Y60.455 E26.75808
G1 X131.219 Y61.745 E26.88091
G1 X133.46 Y63.183 E27.0049
G1 X135.591 Y64.736 E27.12768
G1 X137.641 Y66.424 E27.25134
G1 X139.569 Y68.213 E27.37381
G1 X141.41 Y70.136 E27.49777
G1 X143.112 Y72.14 E27.6202
G1 X144.713 Y74.267 E27.74416
G1 X146.162 Y76.452 E27.86624
G1 X146.391 Y76.942 E27.89143
G1 X146.496 Y77.448 E27.91549
G1 X146.479 Y77.97 E27.93981
G1 X146.341 Y78.473 E27.9641
G1 X146.092 Y78.926 E27.98817
G1 X145.739 Y79.313 E28.01256
G1 X145.304 Y79.608 E28.03703
G1 X144.822 Y79.79 E28.06102
G1 X144.305 Y79.856 E28.08529
G1 X143.757 Y79.782 E28.11104
G1 X143.245 Y79.574 E28.13677
G1 X142.793 Y79.238 E28.163
G1 X142.433 Y78.795 E28.18958
G1 X141.014 Y76.665 E28.30876
G1 X139.452 Y74.617 E28.42869
G1 X137.762 Y72.674 E28.5486
G1 X135.952 Y70.841 E28.66855
G1 X134.027 Y69.129 E28.78851
G1 X131.998 Y67.543 E28.90842
G1 X129.872 Y66.09 E29.02833
G1 X127.656 Y64.776 E29.14829
G1 X125.361 Y63.605 E29.26827
G1 X122.996 Y62.584 E29.38821
G1 X120.571 Y61.716 E29.50815
G1 X118.095 Y61.006 E29.62809
G1 X115.579 Y60.455 E29.74802
G1 X113.032 Y60.066 E29.86799
G1 X110.467 Y59.84 E29.98789
G1 X107.892 Y59.779 E30.10783
G1 X105.318 Y59.883 E30.22778
G1 X102.756 Y60.15 E30.34773
G1 X100.216 Y60.581 E30.46769
G1 X97.71 Y61.174 E30.5876
G1 X95.246 Y61.925 E30.70755
G1 X92.835 Y62.832 E30.8275
G1 X90.488 Y63.892 E30.94741
G1 X88.212 Y65.1 E31.06739
G1 X86.019 Y66.45 E31.18731
G1 X83.916 Y67.938 E31.30726
G1 X81.913 Y69.557 E31.42719
G1 X80.017 Y71.301 E31.54715
G1 X78.237 Y73.163 E31.66709
G1 X76.579 Y75.135 E31.78706
G1 X75.051 Y77.208 E31.90698
G1 X73.659 Y79.375 E32.0269
G1 X72.407 Y81.626 E32.14684
G1 X71.302 Y83.953 E32.26679
G1 X70.349 Y86.346 E32.38673
G1 X69.55 Y88.795 E32.50668
G1 X68.909 Y91.289 E32.62659
G1 X68.428 Y93.82 E32.74655
G1 X68.111 Y96.376 E32.86648
G1 X67.958 Y98.947 E32.98641
G1 X67.969 Y101.523 E33.10636
G1 X68.145 Y104.093 E33.22631
G1 X68.486 Y106.647 E33.34629
G1 X68.988 Y109.172 E33.46617
G1 X69.651 Y111.662 E33.58615
G1 X70.471 Y114.104 E33.7061
G1 X71.446 Y116.487 E33.82599
G1 X72.583 Y118.826 E33.94709
G1 X73.843 Y121.045 E34.06591
G1 X75.27 Y123.22 E34.18704
G1 X76.638 Y125.043 E34.29317
G1 X72.945 Y128.215 E34.51986
G1 X72.945 Y148.272 E35.4538
G1 X70.097 Y148.272 E35.58641
G1 X70.096 Y148.272 E35.58646
G1 X69.775 Y148.272 E35.59577
M204 S3000
M205 X10 Y10
G0 F3000 X69.803 Y148.47
G0 X69.347 Y148.535
G0 X68.495 Y147.162
M204 S1800
M205 X8 Y8
;TYPE:SKIN
G1 F1500 X69.405 Y153.515 E35.89461
G1 X67.08 Y153.515 E36.00287
G1 X67.988 Y147.168 E36.30143
G1 X64.615 Y147.168 E36.45849
G1 X64.615 Y100.567 E38.62842
G1 X64.613 Y99.936 E38.65781
G1 X64.615 Y99.383 E38.68356
G1 X64.615 Y68.429 E40.1249
G1 X72.826 Y68.429 E40.50724
G1 X71.845 Y61.58 E40.82942
G1 X72.026 Y61.58 E40.83784
G1 X72.052 Y61.734 E40.84512
G1 X72.439 Y62.803 E40.89805
G1 X73.009 Y63.784 E40.95089
G1 X73.745 Y64.649 E41.00377
G1 X74.619 Y65.372 E41.05659
G1 X75.61 Y65.927 E41.10948
G1 X76.683 Y66.3 E41.16237
G1 X77.805 Y66.475 E41.21525
G1 X78.939 Y66.45 E41.26807
G1 X80.052 Y66.227 E41.32092
G1 X81.106 Y65.808 E41.37374
G1 X82.002 Y65.254 E41.42279
G1 X84.178 Y63.72 E41.54676
G1 X86.385 Y62.351 E41.66769
G1 X88.626 Y61.139 E41.78633
G1 X90.992 Y60.035 E41.9079
G1 X93.374 Y59.093 E42.02717
G1 X95.822 Y58.287 E42.14718
G1 X98.325 Y57.623 E42.26776
G1 X100.863 Y57.109 E42.38834
G1 X103.39 Y56.753 E42.50717
G1 X105.967 Y56.543 E42.62757
G1 X108.548 Y56.485 E42.74778
G1 X111.147 Y56.584 E42.86889
G1 X113.702 Y56.83 E42.98841
G1 X116.249 Y57.23 E43.10846
G1 X118.776 Y57.782 E43.2289
G1 X121.269 Y58.485 E43.34952
G1 X123.716 Y59.332 E43.47009
G1 X126.067 Y60.305 E43.58857
G1 X128.428 Y61.451 E43.71077
G1 X130.636 Y62.689 E43.82864
G1 X132.828 Y64.095 E43.94991
G1 X134.923 Y65.623 E44.07065
G1 X136.902 Y67.253 E44.19003
G1 X138.793 Y69.007 E44.31013
G1 X140.583 Y70.877 E44.43067
G1 X142.255 Y72.846 E44.55095
G1 X143.814 Y74.918 E44.67169
G1 X145.194 Y77.001 E44.78804
G1 X145.331 Y77.293 E44.80306
G1 X145.382 Y77.539 E44.81476
G1 X145.373 Y77.807 E44.82724
G1 X145.306 Y78.05 E44.83898
G1 X145.181 Y78.277 E44.85105
G1 X145.006 Y78.469 E44.86314
G1 X144.793 Y78.614 E44.87514
G1 X144.549 Y78.706 E44.88728
G1 X144.314 Y78.736 E44.89832
G1 X144.041 Y78.699 E44.91114
G1 X143.794 Y78.599 E44.92355
G1 X143.566 Y78.429 E44.93679
G1 X143.329 Y78.138 E44.95427
G1 X141.918 Y76.02 E45.07277
G1 X140.312 Y73.915 E45.19606
G1 X138.576 Y71.919 E45.31924
G1 X136.717 Y70.036 E45.44245
G1 X134.738 Y68.277 E45.56574
G1 X132.653 Y66.647 E45.68897
G1 X130.469 Y65.154 E45.81216
G1 X128.191 Y63.803 E45.93549
G1 X125.833 Y62.6 E46.05875
G1 X123.404 Y61.551 E46.18195
G1 X120.912 Y60.659 E46.3052
G1 X118.367 Y59.929 E46.42848
G1 X115.781 Y59.363 E46.55175
G1 X113.164 Y58.964 E46.67501
G1 X110.529 Y58.731 E46.79819
G1 X107.883 Y58.669 E46.92143
G1 X105.239 Y58.776 E47.04465
G1 X102.605 Y59.049 E47.16796
G1 X99.995 Y59.492 E47.29123
G1 X97.42 Y60.102 E47.41445
G1 X94.889 Y60.874 E47.53766
G1 X92.411 Y61.805 E47.66092
G1 X89.999 Y62.895 E47.78417
G1 X87.661 Y64.137 E47.90745
G1 X85.407 Y65.524 E48.03068
G1 X83.246 Y67.053 E48.15395
G1 X81.188 Y68.716 E48.27715
G1 X79.24 Y70.508 E48.4004
G1 X77.41 Y72.422 E48.52371
G1 X75.707 Y74.448 E48.64695
G1 X74.137 Y76.578 E48.77016
G1 X72.706 Y78.804 E48.89338
G1 X71.42 Y81.118 E49.01665
G1 X70.283 Y83.509 E49.13994
G1 X69.305 Y85.968 E49.26316
G1 X68.484 Y88.484 E49.3864
G1 X67.825 Y91.047 E49.50962
G1 X67.33 Y93.648 E49.63291
G1 X67.005 Y96.274 E49.75612
G1 X66.848 Y98.917 E49.87941
G1 X66.859 Y101.563 E50.00262
G1 X67.04 Y104.204 E50.12588
G1 X67.391 Y106.829 E50.2492
G1 X67.906 Y109.423 E50.37234
G1 X68.587 Y111.982 E50.49565
G1 X69.43 Y114.491 E50.6189
G1 X70.432 Y116.94 E50.74211
G1 X71.6 Y119.343 E50.86652
G1 X72.895 Y121.624 E50.98866
G1 X74.361 Y123.858 E51.11308
G1 X75.126 Y124.879 E51.17248
G1 X71.835 Y127.705 E51.37447
G1 X71.835 Y147.162 E52.28047
G1 X68.495 Y147.162 E52.436
M204 S3000
M205 X10 Y10
G0 F3000 X67.422 Y152.954
M204 S1800
M205 X8 Y8
G1 F1500 X67.722 Y153.254 E52.45575
M204 S3000
M205 X10 Y10
G0 F3000 X68.514 Y153.254
M204 S1800
M205 X8 Y8
G1 F1500 X67.521 Y152.261 E52.52114
M204 S3000
M205 X10 Y10
G0 F3000 X67.62 Y151.568
M204 S1800
M205 X8 Y8
G1 F1500 X69.071 Y153.019 E52.61669
M204 S3000
M205 X10 Y10
G0 F3000 X68.939 Y152.095
M204 S1800
M205 X8 Y8
G1 F1500 X67.72 Y150.876 E52.69697
M204 S3000
M205 X10 Y10
G0 F3000 X67.819 Y150.183
M204 S1800
M205 X8 Y8
G1 F1500 X68.806 Y151.17 E52.76196
M204 S3000
M205 X10 Y10
G0 F3000 X68.674 Y150.246
M204 S1800
M205 X8 Y8
G1 F1500 X67.918 Y149.49 E52.81175
M204 S3000
M205 X10 Y10
G0 F3000 X68.541 Y149.321
M204 S1800
M205 X8 Y8
G1 F1500 X68.017 Y148.797 E52.84625
M204 S3000
M205 X10 Y10
G0 F3000 X68.409 Y148.397
M204 S1800
M205 X8 Y8
G1 F1500 X68.117 Y148.104 E52.86552
M204 S3000
M205 X10 Y10
G0 F3000 X68.497 Y146.901
M204 S1800
M205 X8 Y8
G1 F1500 X64.874 Y143.278 E53.1041
M204 S3000
M205 X10 Y10
G0 F3000 X64.874 Y142.486
M204 S1800
M205 X8 Y8
G1 F1500 X69.289 Y146.901 E53.39483
M204 S3000
M205 X10 Y10
G0 F3000 X70.081 Y146.901
M204 S1800
M205 X8 Y8
G1 F1500 X64.874 Y141.695 E53.73769
M204 S3000
M205 X10 Y10
G0 F3000 X64.874 Y140.903
M204 S1800
M205 X8 Y8
G1 F1500 X70.873 Y146.901 E54.1327
M204 S3000
M205 X10 Y10
G0 F3000 X71.574 Y146.81
M204 S1800
M205 X8 Y8
G1 F1500 X64.874 Y140.111 E54.57387
M204 S3000
M205 X10 Y10
G0 F3000 X64.874 Y139.319
M204 S1800
M205 X8 Y8
G1 F1500 X71.574 Y146.018 E55.01505
M204 S3000
M205 X10 Y10
G0 F3000 X71.574 Y145.227
M204 S1800
M205 X8 Y8
G1 F1500 X64.874 Y138.527 E55.45625
M204 S3000
M205 X10 Y10
G0 F3000 X64.874 Y137.735
M204 S1800
M205 X8 Y8
G1 F1500 X71.574 Y144.435 E55.89746
M204 S3000
M205 X10 Y10
G0 F3000 X71.574 Y143.643
M204 S1800
M205 X8 Y8
G1 F1500 X64.874 Y136.943 E56.33867
M204 S3000
M205 X10 Y10
G0 F3000 X64.874 Y136.151
M204 S1800
M205 X8 Y8
G1 F1500 X71.574 Y142.851 E56.77987
M204 S3000
M205 X10 Y10
G0 F3000 X71.574 Y142.059
M204 S1800
M205 X8 Y8
G1 F1500 X64.874 Y135.359 E57.22108
M204 S3000
M205 X10 Y10
G0 F3000 X64.874 Y134.567
M204 S1800
M205 X8 Y8
G1 F1500 X71.574 Y141.267 E57.66229
M204 S3000
M205 X10 Y10
G0 F3000 X71.574 Y140.475
M204 S1800
M205 X8 Y8
G1 F1500 X64.874 Y133.775 E58.10349
M204 S3000
M205 X10 Y10
G0 F3000 X64.874 Y132.983
M204 S1800
M205 X8 Y8
G1 F1500 X71.574 Y139.683 E58.5447
M204 S3000
M205 X10 Y10
G0 F3000 X71.574 Y138.891
M204 S1800
M205 X8 Y8
G1 F1500 X64.874 Y132.191 E58.9859
M204 S3000
M205 X10 Y10
G0 F3000 X64.874 Y131.399
M204 S1800
M205 X8 Y8
G1 F1500 X71.574 Y138.099 E59.42711
M204 S3000
M205 X10 Y10
G0 F3000 X71.574 Y137.307
M204 S1800
M205 X8 Y8
G1 F1500 X64.874 Y130.607 E59.86832
M204 S3000
M205 X10 Y10
G0 F3000 X64.874 Y129.815
M204 S1800
M205 X8 Y8
G1 F1500 X71.574 Y136.515 E60.30952
M204 S3000
M205 X10 Y10
G0 F3000 X71.574 Y135.723
M204 S1800
M205 X8 Y8
G1 F1500 X64.874 Y129.023 E60.75073
M204 S3000
M205 X10 Y10
G0 F3000 X64.874 Y128.231
M204 S1800
M205 X8 Y8
