;FLAVOR:Marlin
;TIME:12749
;Filament used: 11.1574m
;Layer height: 0.2
;MINX:61.982
;MINY:59.429
;MINZ:0.2
;MAXX:148.017
;MAXY:150.571
;MAXZ:22.4
;Generated with Cura_SteamEngine 4.10.0
M140 S50
M105
M190 S50
M104 S215
M105
M109 S215
M82 ;absolute extrusion mode
G21 ;metric values
G90 ;absolute positioning
M82 ;set extruder to absolute mode
M107 ;start with the fan off
G28 X0 Y0 ;move X/Y to min endstops
G28 Z0 ;move Z to min endstops
G1 Z15.0 F100 ;move the platform down 15mm
G92 E0 ;zero the extruded length
G1 F200 E3 ;extrude 3mm of feed stock
G92 E0 ;zero the extruded length again
G1 F100
G0 Y20 F100
M117 Printing...
G5
G92 E0
G92 E0
G1 F2400 E-6
;LAYER_COUNT:113
;LAYER:0
M107
M204 S3000
M205 X10 Y10
G1 F600 Z0.275
G0 F3000 X68.773 Y67.569 Z0.275
M204 S1800
M205 X8 Y8
;TYPE:SKIRT
G1 F600 Z0.2
G1 F2400 E0
G1 X69.239 Y67.093 E0.03102
G1 X70.398 Y65.938 E0.10721
G1 X70.878 Y65.472 E0.13836
G1 X71.392 Y65.002 E0.17079
G1 X71.932 Y64.538 E0.20394
G1 X72.523 Y64.047 E0.23972
G1 X72.989 Y63.689 E0.26708
G1 X73.434 Y63.374 E0.29247
G1 X73.999 Y62.988 E0.32433
G1 X74.567 Y62.611 E0.35608
G1 X75.319 Y62.172 E0.39662
G1 X75.924 Y61.874 E0.42803
G1 X76.422 Y61.641 E0.45363
G1 X77.049 Y61.358 E0.48566
G1 X77.772 Y61.076 E0.5218
G1 X78.292 Y60.923 E0.54704
G1 X79.162 Y60.702 E0.58883
G1 X79.419 Y60.642 E0.60112
G1 X79.917 Y60.534 E0.62485
G1 X80.555 Y60.424 E0.655
G1 X81.125 Y60.354 E0.68174
G1 X82.13 Y60.255 E0.72876
G1 X82.851 Y60.193 E0.76246
G1 X83.061 Y60.178 E0.77226
G1 X83.706 Y60.141 E0.80234
G1 X98.562 Y59.464 E1.49482
G1 X99.505 Y59.434 E1.53875
G1 X99.743 Y59.43 E1.54984
G1 X109.816 Y59.429 E2.01888
G1 X110.889 Y59.444 E2.06885
G1 X111.347 Y59.459 E2.09018
G1 X126.323 Y60.143 E2.78826
G1 X127.053 Y60.186 E2.82231
G1 X127.271 Y60.202 E2.83248
G1 X127.965 Y60.264 E2.86493
G1 X128.674 Y60.335 E2.89811
G1 X129.348 Y60.412 E2.9297
G1 X129.985 Y60.512 E2.95972
G1 X130.478 Y60.616 E2.98318
G1 X130.959 Y60.729 E3.00619
G1 X131.61 Y60.892 E3.03744
G1 X132.351 Y61.119 E3.07353
G1 X132.831 Y61.312 E3.09762
G1 X133.625 Y61.664 E3.13806
G1 X133.826 Y61.757 E3.14837
G1 X134.517 Y62.088 E3.18405
G1 X135.45 Y62.62 E3.23406
G1 X136.053 Y63.024 E3.26786
G1 X136.448 Y63.296 E3.29019
G1 X137.023 Y63.704 E3.32302
G1 X137.535 Y64.097 E3.35307
G1 X137.721 Y64.249 E3.36426
G1 X138.302 Y64.743 E3.39977
G1 X138.823 Y65.202 E3.4321
G1 X139.256 Y65.604 E3.45961
G1 X139.599 Y65.94 E3.48197
G1 X140.768 Y67.108 E3.55892
G1 X141.295 Y67.648 E3.59405
G1 X141.71 Y68.11 E3.62297
G1 X142.129 Y68.618 E3.65363
G1 X143.001 Y69.703 E3.71845
G1 X143.438 Y70.261 E3.75145
G1 X143.832 Y70.814 E3.78307
G1 X144.17 Y71.34 E3.81218
G1 X144.747 Y72.285 E3.86374
G1 X145.129 Y72.93 E3.89864
G1 X145.385 Y73.399 E3.92352
G1 X145.544 Y73.73 E3.94062
G1 X145.843 Y74.397 E3.97466
G1 X146.13 Y75.057 E4.00817
G1 X146.415 Y75.739 E4.04259
G1 X146.676 Y76.469 E4.07869
G1 X146.847 Y77.147 E4.11125
G1 X146.999 Y77.901 E4.14706
G1 X147.11 Y78.492 E4.17506
G1 X147.236 Y79.22 E4.20947
G1 X147.297 Y79.641 E4.22928
G1 X147.388 Y80.44 E4.26672
G1 X147.922 Y85.738 E4.51467
G1 X147.979 Y86.399 E4.54556
G1 X148.013 Y87.121 E4.57922
G1 X148.017 Y87.36 E4.59035
G1 X148.017 Y130.568 E6.60229
G1 X148.007 Y131.266 E6.6348
G1 X147.974 Y131.872 E6.66306
G1 X147.919 Y132.401 E6.68782
G1 X147.281 Y137.245 E6.91533
G1 X147.182 Y137.922 E6.94719
G1 X147.063 Y138.597 E6.9791
G1 X146.557 Y141.035 E7.09505
G1 X146.407 Y141.706 E7.12706
G1 X146.171 Y142.533 E7.16711
G1 X145.905 Y143.26 E7.20315
G1 X145.184 Y145.125 E7.29626
G1 X144.9 Y145.832 E7.33174
G1 X144.574 Y146.536 E7.36786
G1 X144.178 Y147.202 E7.40394
G1 X143.715 Y147.824 E7.44005
G1 X143.19 Y148.395 E7.47617
G1 X142.61 Y148.909 E7.51225
G1 X141.979 Y149.36 E7.54837
G1 X141.306 Y149.745 E7.58447
G1 X140.596 Y150.057 E7.62058
G1 X139.858 Y150.295 E7.65669
G1 X139.1 Y150.456 E7.69277
G1 X138.081 Y150.547 E7.74041
G1 X136.881 Y150.571 E7.7963
G1 X72.666 Y150.566 E10.78642
G1 X71.983 Y150.556 E10.81823
G1 X71.209 Y150.505 E10.85435
G1 X70.445 Y150.374 E10.89044
G1 X69.698 Y150.165 E10.92656
G1 X68.977 Y149.881 E10.96264
G1 X68.289 Y149.524 E10.99873
G1 X67.641 Y149.098 E11.03484
G1 X67.041 Y148.607 E11.07095
G1 X66.494 Y148.057 E11.10707
G1 X66.007 Y147.454 E11.14316
G1 X65.584 Y146.804 E11.17927
G1 X65.137 Y145.895 E11.22644
G1 X64.715 Y144.868 E11.27814
G1 X64.159 Y143.432 E11.34984
G1 X63.874 Y142.662 E11.38807
G1 X63.625 Y141.848 E11.42771
G1 X63.457 Y141.108 E11.46304
G1 X63.03 Y139.063 E11.56032
G1 X62.879 Y138.287 E11.59713
G1 X62.79 Y137.766 E11.62174
G1 X62.755 Y137.531 E11.63281
G1 X62.125 Y132.738 E11.85791
G1 X62.042 Y132.022 E11.89147
G1 X61.996 Y131.402 E11.92042
G1 X61.982 Y130.779 E11.94944
G1 X61.984 Y87.647 E13.95785
G1 X61.994 Y86.941 E13.99072
G1 X62.037 Y86.162 E14.02705
G1 X62.056 Y85.945 E14.03719
G1 X62.626 Y80.294 E14.30166
G1 X62.699 Y79.661 E14.33133
G1 X62.76 Y79.237 E14.35128
G1 X62.908 Y78.386 E14.3915
G1 X63.009 Y77.851 E14.41685
G1 X63.153 Y77.142 E14.45054
G1 X63.347 Y76.391 E14.48666
G1 X63.532 Y75.867 E14.51254
G1 X63.63 Y75.62 E14.52491
G1 X63.866 Y75.058 E14.55329
G1 X64.18 Y74.337 E14.58991
G1 X64.461 Y73.709 E14.62195
G1 X64.863 Y72.934 E14.6626
G1 X65.318 Y72.171 E14.70397
G1 X65.768 Y71.44 E14.74394
G1 X66.067 Y70.969 E14.76991
G1 X66.462 Y70.405 E14.80198
G1 X67.242 Y69.396 E14.86136
G1 X67.773 Y68.735 E14.90084
G1 X68.306 Y68.089 E14.93984
G1 X68.773 Y67.569 E14.97238
M204 S3000
M205 X10 Y10
G0 F3000 X69.173 Y67.961
M204 S1800
M205 X8 Y8
G1 F2400 X69.634 Y67.49 E15.00307
G1 X70.788 Y66.34 E15.07893
G1 X71.268 Y65.874 E15.11009
G1 X71.757 Y65.426 E15.14097
G1 X72.29 Y64.969 E15.17366
G1 X72.881 Y64.478 E15.20944
G1 X73.32 Y64.14 E15.23523
G1 X73.755 Y63.833 E15.26003
G1 X74.309 Y63.454 E15.29128
G1 X74.877 Y63.077 E15.32303
G1 X75.572 Y62.671 E15.36051
G1 X76.167 Y62.378 E15.39139
G1 X76.653 Y62.151 E15.41637
G1 X77.28 Y61.868 E15.4484
G1 X77.975 Y61.598 E15.48312
G1 X78.429 Y61.466 E15.50513
G1 X79.299 Y61.245 E15.54693
G1 X79.538 Y61.189 E15.55836
G1 X80.036 Y61.081 E15.58209
G1 X80.626 Y60.979 E15.60997
G1 X81.18 Y60.911 E15.63596
G1 X82.178 Y60.813 E15.68265
G1 X82.899 Y60.751 E15.71635
G1 X83.094 Y60.737 E15.72545
G1 X83.732 Y60.7 E15.75521
G1 X98.58 Y60.024 E16.44731
G1 X99.523 Y59.994 E16.49124
G1 X99.743 Y59.99 E16.50149
G1 X109.816 Y59.989 E16.97053
G1 X111.028 Y60.007 E17.02697
G1 X111.321 Y60.018 E17.04063
G1 X126.29 Y60.702 E17.73837
G1 X127.02 Y60.745 E17.77242
G1 X127.222 Y60.76 E17.78185
G1 X127.91 Y60.821 E17.81402
G1 X128.61 Y60.891 E17.84677
G1 X129.284 Y60.968 E17.87836
G1 X129.874 Y61.061 E17.90617
G1 X130.721 Y61.248 E17.94656
G1 X131.473 Y61.435 E17.98265
G1 X132.186 Y61.655 E18.01739
G1 X132.604 Y61.824 E18.03839
G1 X133.398 Y62.176 E18.07883
G1 X133.584 Y62.262 E18.08837
G1 X134.275 Y62.593 E18.12405
G1 X135.139 Y63.086 E18.17037
G1 X135.736 Y63.486 E18.20383
G1 X136.124 Y63.753 E18.22576
G1 X136.699 Y64.161 E18.25859
G1 X137.187 Y64.535 E18.28722
G1 X137.359 Y64.676 E18.29758
G1 X137.83 Y65.075 E18.32632
G1 X138.453 Y65.623 E18.36495
G1 X138.864 Y66.004 E18.39105
G1 X139.203 Y66.336 E18.41314
G1 X140.367 Y67.499 E18.48976
G1 X140.894 Y68.039 E18.5249
G1 X141.278 Y68.466 E18.55164
G1 X141.693 Y68.969 E18.582
G1 X142.561 Y70.049 E18.64652
G1 X142.998 Y70.607 E18.67952
G1 X143.362 Y71.118 E18.70874
G1 X143.692 Y71.632 E18.73718
G1 X144.266 Y72.57 E18.78839
G1 X144.648 Y73.215 E18.82329
G1 X144.911 Y73.703 E18.84911
G1 X145.033 Y73.96 E18.86235
G1 X145.329 Y74.62 E18.89603
G1 X145.613 Y75.273 E18.92919
G1 X145.898 Y75.955 E18.96361
G1 X146.148 Y76.658 E18.99835
G1 X146.298 Y77.258 E19.02715
G1 X146.448 Y78.006 E19.06267
G1 X146.558 Y78.587 E19.09021
G1 X146.684 Y79.315 E19.12461
G1 X146.74 Y79.705 E19.14296
G1 X146.831 Y80.497 E19.18008
G1 X147.364 Y85.786 E19.4276
G1 X147.421 Y86.447 E19.4585
G1 X147.453 Y87.139 E19.49075
G1 X147.457 Y87.36 E19.50105
G1 X147.457 Y130.56 E21.51262
G1 X147.447 Y131.258 E21.54512
G1 X147.417 Y131.819 E21.57128
G1 X147.364 Y132.328 E21.59511
G1 X146.727 Y137.164 E21.82224
G1 X146.628 Y137.841 E21.8541
G1 X146.514 Y138.484 E21.88451
G1 X146.01 Y140.912 E21.99998
G1 X145.86 Y141.583 E22.03199
G1 X145.642 Y142.349 E22.06908
G1 X145.38 Y143.064 E22.10454
G1 X144.698 Y144.831 E22.19273
G1 X144.38 Y145.623 E22.23247
G1 X144.066 Y146.3 E22.26722
G1 X143.68 Y146.938 E22.30194
G1 X143.229 Y147.532 E22.33667
G1 X142.717 Y148.074 E22.37139
G1 X142.149 Y148.558 E22.40614
G1 X141.533 Y148.979 E22.44088
G1 X140.876 Y149.331 E22.47559
G1 X140.184 Y149.611 E22.51035
G1 X139.467 Y149.815 E22.54506
G1 X138.732 Y149.942 E22.57979
G1 X138.069 Y149.987 E22.61073
G1 X136.881 Y150.011 E22.66606
G1 X72.674 Y150.006 E25.65581
G1 X71.991 Y149.996 E25.68762
G1 X71.247 Y149.945 E25.72234
G1 X70.512 Y149.815 E25.7571
G1 X69.796 Y149.607 E25.79182
G1 X69.106 Y149.324 E25.82654
G1 X68.451 Y148.968 E25.86126
G1 X67.837 Y148.544 E25.896
G1 X67.272 Y148.057 E25.93073
G1 X66.762 Y147.512 E25.96549
G1 X66.314 Y146.916 E26.00021
G1 X65.932 Y146.275 E26.03495
G1 X65.655 Y145.682 E26.06543
G1 X65.178 Y144.517 E26.12405
G1 X64.644 Y143.132 E26.19317
G1 X64.399 Y142.468 E26.22612
G1 X64.169 Y141.715 E26.26279
G1 X64.004 Y140.988 E26.2975
G1 X63.578 Y138.949 E26.39449
G1 X63.428 Y138.18 E26.43098
G1 X63.343 Y137.675 E26.45482
G1 X63.311 Y137.458 E26.46504
G1 X62.681 Y132.673 E26.68977
G1 X62.598 Y131.957 E26.72333
G1 X62.556 Y131.384 E26.75008
G1 X62.542 Y130.774 E26.7785
G1 X62.544 Y87.655 E28.7863
G1 X62.554 Y86.949 E28.81918
G1 X62.596 Y86.202 E28.85401
G1 X62.613 Y86.001 E28.86341
G1 X63.182 Y80.359 E29.12745
G1 X63.255 Y79.726 E29.15712
G1 X63.312 Y79.333 E29.17562
G1 X63.459 Y78.489 E29.21551
G1 X63.558 Y77.963 E29.24043
G1 X63.702 Y77.254 E29.27412
G1 X63.89 Y76.532 E29.30886
G1 X64.146 Y75.837 E29.34335
G1 X64.38 Y75.281 E29.37144
G1 X64.691 Y74.565 E29.40779
G1 X64.972 Y73.937 E29.43982
G1 X65.344 Y73.22 E29.47743
G1 X65.795 Y72.464 E29.51842
G1 X66.241 Y71.74 E29.55802
G1 X66.54 Y71.269 E29.584
G1 X66.906 Y70.747 E29.61368
G1 X67.679 Y69.747 E29.67254
G1 X68.265 Y69.019 E29.71605
G1 X68.738 Y68.445 E29.75069
G1 X69.173 Y67.961 E29.78099
M204 S3000
M205 X10 Y10
G0 F3000 X69.573 Y68.352
M204 S1800
M205 X8 Y8
G1 F2400 X70.03 Y67.886 E29.81138
G1 X71.178 Y66.742 E29.88685
G1 X71.658 Y66.276 E29.918
G1 X72.122 Y65.851 E29.9473
G1 X72.648 Y65.399 E29.97959
G1 X73.239 Y64.908 E30.01537
G1 X73.651 Y64.592 E30.03955
G1 X74.076 Y64.292 E30.06377
G1 X74.619 Y63.921 E30.09439
G1 X75.187 Y63.544 E30.12614
G1 X75.826 Y63.171 E30.16059
G1 X76.41 Y62.883 E30.19091
G1 X76.883 Y62.662 E30.21522
G1 X77.51 Y62.379 E30.24725
G1 X78.177 Y62.121 E30.28055
G1 X78.567 Y62.009 E30.29945
G1 X79.437 Y61.788 E30.34124
G1 X79.657 Y61.736 E30.35177
G1 X80.155 Y61.628 E30.3755
G1 X80.698 Y61.535 E30.40115
G1 X81.236 Y61.468 E30.4264
G1 X82.14 Y61.378 E30.4687
G1 X82.947 Y61.309 E30.50641
G1 X83.126 Y61.296 E30.51477
G1 X83.757 Y61.26 E30.5442
G1 X98.597 Y60.583 E31.23593
G1 X99.54 Y60.553 E31.27986
G1 X99.743 Y60.55 E31.28932
G1 X109.816 Y60.549 E31.75836
G1 X111.008 Y60.567 E31.81387
G1 X111.296 Y60.578 E31.82729
G1 X126.257 Y61.261 E32.52466
G1 X126.987 Y61.304 E32.55871
G1 X127.173 Y61.318 E32.5674
G1 X127.854 Y61.378 E32.59923
G1 X128.546 Y61.447 E32.63161
G1 X129.22 Y61.524 E32.6632
G1 X129.763 Y61.61 E32.6888
G1 X130.593 Y61.793 E32.72838
G1 X131.337 Y61.979 E32.76409
G1 X132.021 Y62.191 E32.79743
G1 X132.377 Y62.336 E32.81533
G1 X133.171 Y62.688 E32.85577
G1 X133.342 Y62.767 E32.86454
G1 X134.033 Y63.098 E32.90022
G1 X134.827 Y63.551 E32.94279
G1 X135.42 Y63.948 E32.97602
G1 X135.8 Y64.209 E32.99748
G1 X136.375 Y64.617 E33.03031
G1 X136.839 Y64.974 E33.05757
G1 X136.997 Y65.104 E33.0671
G1 X137.562 Y65.584 E33.10162
G1 X138.192 Y66.141 E33.14078
G1 X138.764 Y66.69 E33.1777
G1 X139.966 Y67.89 E33.25678
G1 X140.493 Y68.43 E33.29192
G1 X140.846 Y68.823 E33.31652
G1 X141.256 Y69.32 E33.34652
G1 X142.12 Y70.394 E33.4107
G1 X142.557 Y70.952 E33.4437
G1 X142.892 Y71.422 E33.47058
G1 X143.214 Y71.924 E33.49835
G1 X143.784 Y72.856 E33.54922
G1 X144.166 Y73.501 E33.58413
G1 X144.41 Y73.954 E33.60809
G1 X144.522 Y74.19 E33.62025
G1 X144.816 Y74.843 E33.6536
G1 X145.096 Y75.489 E33.68638
G1 X145.381 Y76.171 E33.7208
G1 X145.62 Y76.846 E33.75414
G1 X145.749 Y77.369 E33.77922
G1 X145.898 Y78.11 E33.81442
G1 X146.006 Y78.683 E33.84157
G1 X146.132 Y79.411 E33.87597
G1 X146.184 Y79.769 E33.89282
G1 X146.274 Y80.553 E33.92956
G1 X146.806 Y85.834 E34.17671
G1 X146.863 Y86.495 E34.20761
G1 X146.894 Y87.157 E34.23847
G1 X146.897 Y87.36 E34.24792
G1 X146.897 Y130.552 E36.25912
G1 X146.887 Y131.25 E36.29163
G1 X146.859 Y131.766 E36.31569
G1 X146.808 Y132.255 E36.33858
G1 X146.173 Y137.083 E36.56533
G1 X146.074 Y137.76 E36.59719
G1 X145.966 Y138.37 E36.62603
G1 X145.464 Y140.79 E36.74112
G1 X145.314 Y141.461 E36.77313
G1 X145.113 Y142.166 E36.80727
G1 X144.856 Y142.868 E36.84208
G1 X144.145 Y144.708 E36.93393
G1 X143.861 Y145.415 E36.96941
G1 X143.557 Y146.062 E37.0027
G1 X143.184 Y146.672 E37.03599
G1 X142.744 Y147.237 E37.06934
G1 X142.245 Y147.748 E37.10259
G1 X141.691 Y148.201 E37.13592
G1 X141.09 Y148.59 E37.16925
G1 X140.45 Y148.908 E37.20253
G1 X139.778 Y149.154 E37.23585
G1 X139.083 Y149.323 E37.26916
G1 X138.057 Y149.428 E37.31718
G1 X137.016 Y149.45 E37.36566
G1 X72.776 Y149.447 E40.35695
G1 X71.999 Y149.436 E40.39313
G1 X71.286 Y149.386 E40.42641
G1 X70.582 Y149.256 E40.45975
G1 X69.898 Y149.049 E40.49303
G1 X69.241 Y148.766 E40.52634
G1 X68.619 Y148.412 E40.55966
G1 X68.041 Y147.991 E40.59296
G1 X67.514 Y147.508 E40.62624
G1 X67.043 Y146.969 E40.65957
G1 X66.636 Y146.381 E40.69287
G1 X66.173 Y145.469 E40.7405
G1 X65.751 Y144.442 E40.7922
G1 X65.204 Y143.029 E40.86275
G1 X64.925 Y142.274 E40.90023
G1 X64.713 Y141.581 E40.93398
G1 X64.551 Y140.868 E40.96802
G1 X64.109 Y138.748 E41.06886
G1 X63.978 Y138.073 E41.10088
G1 X63.866 Y137.385 E41.13334
G1 X63.238 Y132.609 E41.35764
G1 X63.155 Y131.893 E41.39121
G1 X63.115 Y131.366 E41.41582
G1 X63.102 Y130.768 E41.44367
G1 X63.104 Y87.663 E43.45082
G1 X63.114 Y86.957 E43.4837
G1 X63.154 Y86.242 E43.51704
G1 X63.17 Y86.057 E43.52569
G1 X63.738 Y80.423 E43.78936
G1 X63.811 Y79.79 E43.81903
G1 X63.863 Y79.429 E43.83601
G1 X64.009 Y78.593 E43.87553
G1 X64.107 Y78.074 E43.90012
G1 X64.251 Y77.365 E43.93381
G1 X64.537 Y76.374 E43.98184
G1 X64.663 Y76.053 E43.9979
G1 X64.894 Y75.503 E44.02568
G1 X65.202 Y74.794 E44.06167
G1 X65.483 Y74.166 E44.09371
G1 X65.826 Y73.507 E44.1283
G1 X66.272 Y72.758 E44.16889
G1 X66.714 Y72.04 E44.20815
G1 X67.013 Y71.569 E44.23413
G1 X67.349 Y71.089 E44.26141
G1 X68.038 Y70.196 E44.31393
G1 X68.697 Y69.375 E44.36295
G1 X69.17 Y68.801 E44.39759
G1 X69.573 Y68.352 E44.42568
M204 S3000
M205 X10 Y10
G0 F3000 X69.974 Y68.744
M204 S1800
M205 X8 Y8
G1 F2400 X70.425 Y68.283 E44.45571
G1 X71.568 Y67.144 E44.53085
G1 X72.048 Y66.678 E44.562
G1 X72.487 Y66.275 E44.58975
G1 X73.006 Y65.83 E44.62158
G1 X73.597 Y65.339 E44.65736
G1 X74.091 Y64.965 E44.68621
G1 X74.44 Y64.721 E44.70604
G1 X74.928 Y64.387 E44.73358
G1 X75.496 Y64.01 E44.76532
G1 X76.08 Y63.67 E44.79679
G1 X76.654 Y63.387 E44.82659
G1 X77.113 Y63.172 E44.85019
G1 X77.74 Y62.889 E44.88222
G1 X78.705 Y62.552 E44.92981
G1 X79.575 Y62.331 E44.97161
G1 X79.775 Y62.284 E44.98118
G1 X80.273 Y62.176 E45.00491
G1 X80.769 Y62.09 E45.02835
G1 X81.291 Y62.026 E45.05284
G1 X82.274 Y61.928 E45.09883
G1 X82.995 Y61.866 E45.13253
G1 X83.783 Y61.819 E45.16929
G1 X98.615 Y61.143 E45.86065
G1 X99.558 Y61.113 E45.90458
G1 X99.743 Y61.11 E45.91319
G1 X109.816 Y61.109 E46.38224
G1 X110.988 Y61.127 E46.43681
G1 X111.27 Y61.137 E46.44995
G1 X126.224 Y61.82 E47.147
G1 X126.954 Y61.863 E47.18105
G1 X127.123 Y61.876 E47.18894
G1 X127.799 Y61.935 E47.22054
G1 X128.483 Y62.004 E47.25255
G1 X129.157 Y62.081 E47.28414
G1 X129.652 Y62.159 E47.30748
G1 X130.465 Y62.338 E47.34624
G1 X131.201 Y62.522 E47.38156
G1 X132.15 Y62.848 E47.42829
G1 X132.944 Y63.2 E47.46873
G1 X133.1 Y63.272 E47.47673
G1 X133.791 Y63.603 E47.51241
G1 X134.516 Y64.016 E47.55126
G1 X135.103 Y64.41 E47.58418
G1 X135.476 Y64.666 E47.60525
